symbolic/16x16/apps/laborejo.svg

<svg width="16" height="16" version="1.1" xmlns="http://www.w3.org/2000/svg">
 <path d="m9.1999416 11.8s1.8000584-0.4 1.8000584-2.4c0-1.1313708-1.8000584-2.4-1.8000584-2.4l-1.1999416-1-1-1 1-1s0.3800048 1.0846984 1.5999224 1.8c2.4881546 1.4589348 2.3998836 2.4 2.3998836 3.6 0 2.4-2.7998644 2.4-2.7998644 2.4z" style="fill:#4f4f4f"/>
 <path d="m7.5998452 13.2 0.7999612 2.4s1.1999416-1.2 0.7999612-2.8c-0.7999612 0-1.5999224 0.4-1.5999224 0.4z" style="fill:#b2bfs9"/>
 <path d="m10.799865 8.2s0.200135 0 0.200135-2c0-1.1313708-1.8000584-2.4-1.8000584-2.4l-1.1999416-0.8-1-1 1-1s0.3800048 0.8846984 1.5999224 1.6c2.4881546 1.4589348 2.3998836 2.4 2.3998836 3.6 0 2.4-1.199941 2-1.199941 2z" style="fill:#4f4f4f"/>
 <path d="m7 0c-0.664768 0-1.0000776 0.5352-1.0000776 1.2v10c0 0.4-1.9999224 2.4-1.9999224 2.8 0 1.2 2 2 2 2l-7.76e-5 -2 3.5000776-1s-1.5-1.8-1.5-2.2v-9.6c0-0.6648-0.335232-1.2-1-1.2z" style="fill:#b2bfd9"/>
</svg>

<svg width="16" height="16" xmlns="http://www.w3.org/2000/svg"><path d="M9.2 11.8s1.8-.4 1.8-2.4C11 8.269 9.2 7 9.2 7L8 6 7 5l1-1s.38 1.085 1.6 1.8C12.088 7.259 12 8.2 12 9.4c0 2.4-2.8 2.4-2.8 2.4z" style="fill:#4f4f4f"/><path d="m7.6 13.2.8 2.4s1.2-1.2.8-2.8c-.8 0-1.6.4-1.6.4z" style="fill:#b2bfs9"/><path d="M10.8 8.2s.2 0 .2-2c0-1.131-1.8-2.4-1.8-2.4L8 3 7 2l1-1s.38.885 1.6 1.6C12.088 4.059 12 5 12 6.2c0 2.4-1.2 2-1.2 2z" style="fill:#4f4f4f"/><path d="M7 0c-.665 0-1 .535-1 1.2v10c0 .4-2 2.4-2 2.8 0 1.2 2 2 2 2v-2l3.5-1S8 11.2 8 10.8V1.2C8 .535 7.665 0 7 0z" style="fill:#b2bfd9"/></svg>
